X:1
T:And am I only born to die
T:And am I only born to die - Examination (John Fawcett)
C:John Fawcett
Z:p52, A Second Sett of
Z:Psalm & Hymn Tunes,
Z:London: [c1814]
%%score [ 1 ( 2 3 ) 4 5 ]
L:1/8
M:2/2
K:C
V:1 treble nm="SOPRANO" snm="S."
V:2 treble nm="ALTO" snm="A."
V:3 treble 
V:4 treble-8 transpose=-12 nm="TENOR" snm="T."
V:5 bass nm="BASS" snm="B."
V:1
"^Affett[uos]o." A4 | (c2 B2) (A2 ^G2) | A4 (Bc d2) | c4 B4 | !fermata!A4 c4 | (e2 d2) (c2 B2) | %6
w: No|room _ for _|mirth or _ _|tri- fling|here, For|world- * ly _|
w: And|am _ I _|on- ly _ _|born to|die? And|must _ I _|
w: How|then _ ought _|I on _ _|earth to|live, While|God _ pro- *|
 c4 (de f2) | e4 d4 | c4 e4 | (d2 ef e2) d2 | c4 B4 | A8 | A4 A2 (AB) | (c4 B2) A2 | d4 c4 | B8 | %16
w: hope, or _ _|world- ly|fear, If|life _ _ _ so|soon is|gone:|If now the _|Judge _ is|at the|door,|
w: sud- den- * *|ly com-|ply With|na- * * * ture’s|stern de-|cree?|What af- ter _|death _ for|me re-|mains:|
w: longs the _ _|kind re-|prieve, And|props _ _ _ the|house of|clay!|My sole con- *|cern, _ my|sin- gle|care,|
 c4 e2 c2 | d4 e4 | (f2 e2) (d2 c2) | (c2 B2) (c2 d2) | (e2 f2 e2) d2 | c4 B4 | A8 |] %23
w: And all man-|kind must|stand _ be- *|fore _ Th’in- *|ex- * * o-|ra- ble|throne!|
w: Ce- les- tial|joys or|hell- * ish _|pains, _ To _|all _ _ e-|ter- ni-|ty?|
w: To watch, and|trem- ble,|and _ pre- *|pare _ A- *|gainst _ _ the|fa- tal|day!|
V:2
 E4 | E4 E4 | E4 (DE F2) | E4 E4 | !fermata!E4 G4 | G4 G4 | G4 (FG A2) | G4 G4 | G4 A4 | %9
w: No|room for|mirth or _ _|tri- fling|here, For|world- ly|hope, or _ _|world- ly|fear, If|
w: And|am I|on- ly _ _|born to|die? And|must I|sud- den- * *|ly com-|ply With|
w: How|then ought|I on _ _|earth to|live, While|God pro-|longs the _ _|kind re-|prieve, And|
 (F2 ED E2) F2 | E4 E4 | E8 | E4 E2 E2 | E6 E2 | F4 E4 | E8 | E4 E2 E2 | G4 G4 | F4 F4 | E4 E4 | %20
w: life _ _ _ so|soon is|gone:|If now the|Judge is|at the|door,|And all man-|kind must|stand be-|fore Th’in-|
w: na- * * * ture’s|stern de-|cree?|What af- ter|death for|me re-|mains:|Ce- les- tial|joys or|hell- ish|pains, To|
w: props _ _ _ the|house of|clay!|My sole con-|cern, my|sin- gle|care,|To watch, and|trem- ble,|and pre-|pare A-|
 G6 F2 | E4 E4 | E8 |] %23
w: ex- o-|ra- ble|throne!|
w: all e-|ter- ni-|ty?|
w: gainst the|fa- tal|day!|
V:3
 x4 | x8 | x8 | x8 | C4 E4 | x8 | x8 | x8 | E4 x4 | x8 | x8 | C8 | x8 | x8 | x8 | x8 | x8 | x8 | %18
 x8 | x8 | x8 | x8 | C8 |] %23
V:4
 A4 | (A2 ^G2) (A2 B2) | c4 B4 | A4 ^G4 | !fermata!A4 c4 | (c2 B2) (c2 d2) | e4 d4 | c4 B4 | %8
w: No|room _ for _|mirth or|tri- fling|here, For|world- * ly _|hope, or|world- ly|
w: And|am _ I _|on- ly|born to|die? And|must _ I _|sud- den-|ly com-|
w: How|then _ ought _|I on|earth to|live, While|God _ pro- *|longs the|kind re-|
 c4 c4 | (B2 cd c2) B2 | A4 ^G4 | A8 | c4 c2 (cB) | (A4 ^G2) c2 | B4 A4 | ^G8 | A4 A2 A2 | B4 c4 | %18
w: fear, If|life _ _ _ so|soon is|gone:|If now the _|Judge _ is|at the|door,|And all man-|kind must|
w: ply With|na- * * * ture’s|stern de-|cree?|What af- ter _|death _ for|me re-|mains:|Ce- les- tial|joys or|
w: prieve, And|props _ _ _ the|house of|clay!|My sole con- *|cern, _ my|sin- gle|care,|To watch, and|trem- ble,|
 (d2 c2) (B2 A2) | (A2 ^G2) (A2 B2) | (c2 d2 c2) B2 | A4 ^G4 | A8 |] %23
w: stand _ be- *|fore _ Th'in- *|ex- * * o-|ra- ble|throne!|
w: hell- * ish _|pains, _ To _|all _ _ e-|ter- ni-|ty?|
w: and _ pre- *|pare _ A- *|gainst _ _ the|fa- tal|day!|
V:5
 A,,4 | E,4 E,4 | A,4 D,4 | E,4 E,4 | !fermata!A,,4 C,4 | G,4 G,4 | C4 F,4 | G,4 G,4 | C,4 A,,4 | %9
w: No|room for|mirth or|tri- fling|here, For|world- ly|hope, or|world- ly|fear, If|
w: And|am I|on- ly|born to|die? And|must I|sud- den-|ly com-|ply With|
w: How|then ought|I on|earth to|live, While|God pro-|longs the|kind re-|prieve, And|
 (B,,4 C,2) D,2 | E,4 E,4 | A,,8 | A,,4 C,2 A,,2 | E,6 A,2 | ^G,4 A,4 | E,8 | %16
w: life _ so|soon is|gone:|If now the|Judge is|at the|door,|
w: na- * ture’s|stern de-|cree?|What af- ter|death for|me re-|mains:|
w: props _ the|house of|clay!|My sole con-|cern, my|sin- gle|care,|
"^Notes:The first verse only of the text is given in the source: three other verses have been added editorially.The order of parts in the source is Tenor - Alto - Air - [Bass]. Figuring of the vocal bass line given in the sourcehas been omitted from this edition.The source has small notes on the soprano stave to indicate the harmony of a right-hand keyboard accompaniment:this mostly doubles the voice parts, and has been omitted from this edition with the exception of four notes (the Con beat 1 of bar 4, the E on beat 2 of bar 4, the C in bar 11 and the C in bar 22) which have been added to the altopart to provide the third of the chord where this would otherwise be absent, and which are shown here as smallnotes. The similar divisi between G and E on beat 1 of bar 8 has both notes printed in the alto part in the source.The alto part is printed in the source in the treble clef, an octave above sounding pitch." A,4 C2 A,2 | %17
w: And all man-|
w: Ce- les- tial|
w: To watch, and|
 (G,2 F,2) E,4 | D,4 D,4 | E,4 (E,2 D,2) | (C,2 B,,2 C,2) D,2 | E,4 E,4 | A,,8 |] %23
w: kind _ must|stand be-|fore Th'in- *|ex- * * o-|ra- ble|throne!|
w: joys _ or|hell- ish|pains, To _|all _ _ e-|ter- ni-|ty?|
w: trem- * ble,|and pre-|pare A- *|gainst _ _ the|fa- tal|day!|

